!!!SOCIAL_FUNCTION:	bird dance songs
!!!PDT:	1956
!!!OTL: No_79_Bird_Dance_Song_(b).krn
!!!LANG: Non-Tone
!!!LING_GROUP: Muskogean
!!!REG: Florida
**kern
*staff1
=1-
*clefF4
*k[b-e-a-]
*M4/8
4r
8.r
16G\
=2!|:
4..B-\
16B-\
=3||
*M3/8
8B-\L
8A-\
8B-\J
=4||
*M4/8
(8G\
16E-\)
16r
8B-\
8B-\
=5||
*M3/8
(8B-\L
8G\J)
16r
16A-\
=6
8G\L
8G\
8E-\J
=7||
*M4/8
4E-\
8G\
8G\
=8||
*M3/8
[4G\
16G\LL]
16A-\JJ
=9
8G\L
8G\
8E-\J
=10||
*M5/8
4E-\
8r
8BB-/L
8BB-/J
=11||
*M3/8
[4E-\
16.E-\LL]
32E-\JJk
=12
8E-/L
8BB-/
8BB-/J
=13||
*M5/8
4BB-/
8r
8E-\L
8E-\J
=14||
*M3/8
[4E-\
16E-\LL]
16G\JJ
=15
8G\L
8G\
8E-\J
=16||
*M4/8
4E-\
8G\
8A-\
=17||
*M3/8
[4G\
16G\LL]
16A-\JJ
=18
8G\L
8G\
8E-\J
=19
4.E-\
=20
8r
8BB-/L
8BB-/J
=21
[4E-\
16E-\LL]
16E-\JJ
=22
8E-/L
8BB-/
8BB-/J
=23||
*M4/8
4BB-/
8.r
16B-\
=24:|!
*M3/8
4BB-/
8r
==
*-
